X: 58
T: Motet cycle Ave mundi domina &mdash; 7. O virginum praeclara
C: Gaspar van Weerbeke
%%abc-version 2.0
%%abcx-abcm2ps-target-version 5.9.1 (29 Sep 2008)
%%abc-creator hum2abc beta
%%abcx-conversion-date 2022/03/06 13:05:59
%%abc-copyright Copyright 2021, Pavanello, Agnese
%%abc-edited-by Sapp, Craig Stuart
%%abc-edited-by Wissmann, Rolf
%%humdrum-veritas 2188980461
%%humdrum-veritas-data 1923746346
%%linebreak <none>
%%barnumbers 0
L: 1/4
M: C|
N: Derived from Gas0301g-Ave_mundi_domina-O_virginum_praeclara.krn
Q: 1/2=160
%%staves [1 2 3 4]
V: 1 clef=treble
V: 2 clef=treble-8
V: 3 clef=treble-8
V: 4 clef=bass
K: F
[V:1] G8- | 
[V:2] d8- | 
[V:3] G8 | 
[V:4] G,,8- | 
[V:1] G8 | 
[V:2] d8- | 
[V:3] G8 | 
[V:4] G,,8 | 
[V:1] D4F4 | 
[V:2] d8 | 
[V:3] B4A4 | 
[V:4] G,4D,4 | 
[V:1] G4_E4 | 
[V:2] B4G4 | 
[V:3] G4c4 | 
[V:4] _E,8 | 
[V:1] F4B4- | 
[V:2] A4B4 | 
[V:3] d8 | 
[V:4] D,4B,,4 | 
[V:1] B2A2F4 | 
[V:2] d6B2 | 
[V:3] B4A4 | 
[V:4] G,,4D,4 | 
[V:1] G6_E2 | 
[V:2] c6Bc | 
[V:3] G8 | 
[V:4] _E,8 | 
[V:1] F4_E4 | 
[V:2] d4_e4 | 
[V:3] A8 | 
[V:4] D,4C,4 | 
[V:1] D4G4- | 
[V:2] f2_edc4 | 
[V:3] B4G4 | 
[V:4] B,,4_E,4 | 
[V:1] G4F4 | 
[V:2] d2>c2A4 | 
[V:3] B4d4 | 
[V:4] D,8 | 
[V:1] G2B2A2c2- | 
[V:2] z2g4g2- | 
[V:3] c2B2d2c2 | 
[V:4] _E,2G,4C,2- | 
[V:1] cBAG2<^F2E | 
[V:2] g2_e2d4 | 
[V:3] _edcBA4 | 
[V:4] C,4D,4 | 
[V:1] G4d4- | 
[V:2] d8 | 
[V:3] G8 | 
[V:4] G,,8 | 
[V:1] d2c2B4 | 
[V:2] d6e2 | 
[V:3] z4B4 | 
[V:4] G,8 | 
[V:1] A6G2 | 
[V:2] f6e2 | 
[V:3] c6B2 | 
[V:4] F,6G,2 | 
[V:1] F4E4 | 
[V:2] d4c4 | 
[V:3] A4G4 | 
[V:4] D,4E,4 | 
[V:1] F4E4- | 
[V:2] d4c3B | 
[V:3] A8 | 
[V:4] D,4A,,4 | 
[V:1] E2D2D4- | 
[V:2] A2F2G4 | 
[V:3] F4D4 | 
[V:4] D,4B,,4 | 
[V:1] D4^C4 | 
[V:2] A8 | 
[V:3] E8 | 
[V:4] A,,4z2A,,2 | 
[V:1] D8 | 
[V:2] z8 | 
[V:3] D2>E2F2G2- | 
[V:4] B,,4A,,2G,,2 | 
[V:1] z4D3E | 
[V:2] c4B2d2- | 
[V:3] G2^F2G2B2 | 
[V:4] A,,4G,,2G,2 | 
[V:1] F2G4^F2 | 
[V:2] d2c2d4 | 
[V:3] A2G2A4 | 
[V:4] D,2E,2D,4 | 
[V:1] G2B2A2G2 | 
[V:2] d8 | 
[V:3] G4z4 | 
[V:4] G,,4z2G,2- | 
[V:1] A4G4 | 
[V:2] z8 | 
[V:3] c4B2d2- | 
[V:4] G,2F,2G,3A, | 
[V:1] z8 | 
[V:2] z8 | 
[V:3] d2cBA2B2- | 
[V:4] B,2A,G,F,2G,2- | 
[V:1] z8 | 
[V:2] z8 | 
[V:3] BAG2F4 | 
[V:4] G,F,E,2D,2B,,2 | 
[V:1] z8 | 
[V:2] z8 | 
[V:3] G2B4A2 | 
[V:4] _E,2D,2C,4 | 
[V:1] B8 | 
[V:2] f8 | 
[V:3] B8 | 
[V:4] B,,8 | 
[V:1] B4B3A | 
[V:2] f4f4 | 
[V:3] d8 | 
[V:4] B,,4B,,4 | 
[V:1] F4D4 | 
[V:2] d4f4 | 
[V:3] d4d4 | 
[V:4] B,,4B,,4 | 
[V:1] E4F4- | 
[V:2] e4d4- | 
[V:3] c4B4 | 
[V:4] C,4D,4 | 
[V:1] F2D2G4- | 
[V:2] d8 | 
[V:3] d6c2 | 
[V:4] B,,4G,,4 | 
[V:1] G4^F4 | 
[V:2] d8 | 
[V:3] A8 | 
[V:4] D,8 | 
[V:1] !fermata!G8 | 
[V:2] !fermata!d8 | 
[V:3] !fermata!G8 | 
[V:4] !fermata!G,,8 | 
[V:1] [M:C]z8 | 
[V:2] [M:C]G4G2G2 | 
[V:3] [M:C]z8 | 
[V:4] [M:C]G,,4B,,2B,,2 | 
[V:1] z8 | 
[V:2] A2A2c2A2 | 
[V:3] z8 | 
[V:4] C,2C,2A,,2A,,2 | 
[V:1] z8 | 
[V:2] d2d2d3c | 
[V:3] z8 | 
[V:4] G,,2G,,2D,2D,2 | 
[V:1] z8 | 
[V:2] B2A2B2AG | 
[V:3] z8 | 
[V:4] D,2D,2D,3C, | 
[V:1] z4G4 | 
[V:2] ^F2>E2G4 | 
[V:3] z4G4 | 
[V:4] A,,2A,,2G,,2G,2 | 
[V:1] G2G2E2E2 | 
[V:2] z8 | 
[V:3] B2B2c2c2 | 
[V:4] G,2G,2C,2C,2 | 
[V:1] F2F2G2G2 | 
[V:2] z4g2de | 
[V:3] A2A2G2G2 | 
[V:4] D,2D,2G,,2G,2 | 
[V:1] A2A2B2A2- | 
[V:2] f4d2f2- | 
[V:3] d2d2d2d2 | 
[V:4] F,2D,2G,2D,2 | 
[V:1] A2G4^F2 | 
[V:2] f2d4d2 | 
[V:3] d2>c2A2A2 | 
[V:4] F,2G,2D,4 | 
[V:1] G4z4 | 
[V:2] d4z2g2 | 
[V:3] z4G4 | 
[V:4] G,4z2G,2 | 
[V:1] z8 | 
[V:2] g2g2e2e2 | 
[V:3] B2B2c2c2 | 
[V:4] G,2G,2C,2C,2 | 
[V:1] z4z2G2 | 
[V:2] f2f2g2d2 | 
[V:3] A2A2G2G2 | 
[V:4] D,2D,2G,,2G,,2 | 
[V:1] G2G2G2G2 | 
[V:2] d2d2e2e2 | 
[V:3] G2G2E2E2 | 
[V:4] B,,2B,,2C,2C,2 | 
[V:1] A2A2D2G2- | 
[V:2] c2c2B2z2 | 
[V:3] F2F2G4 | 
[V:4] A,,2A,,2G,,4 | 
[V:1] GFEDE2F2- | 
[V:2] c2>B2c4 | 
[V:3] G2>F2G2A2 | 
[V:4] C,2>D,2C,2A,,2 | 
[V:1] F2D4^C2 | 
[V:2] d2A6 | 
[V:3] D2F2E4 | 
[V:4] B,,2D,2A,,4 | 
[V:1] !fermata!D4F2F2 | 
[V:2] !fermata!A4B2B2 | 
[V:3] !fermata!D4d2d2 | 
[V:4] !fermata!D,4B,,2B,,2 | 
[V:1] D2F2F2B2 | 
[V:2] B2F2f2f2 | 
[V:3] B2d2d2d2 | 
[V:4] B,,2B,,2B,,2B,,2 | 
[V:1] A2B2A2A2 | 
[V:2] f2d2f2f2 | 
[V:3] c2B2z4 | 
[V:4] F,2B,,2z4 | 
[V:1] F2A2A2A2 | 
[V:2] d2f2f2f2 | 
[V:3] z8 | 
[V:4] z8 | 
[V:1] G2F2G2GG | 
[V:2] e2d2e2ee | 
[V:3] z8 | 
[V:4] z8 | 
[V:1] G2G2F2E2 | 
[V:2] e2e2d2c2 | 
[V:3] z4z4 | 
[V:4] z8 | 
[V:1] D2z2z4 | 
[V:2] d2g2f2e2 | 
[V:3] z4z4 | 
[V:4] z4z2G,2 | 
[V:1] z8 | 
[V:2] d2g2f2e2 | 
[V:3] z4z4 | 
[V:4] F,2E,2D,2G,2 | 
[V:1] z2G2F2B2 | 
[V:2] dd2^cd2B2 | 
[V:3] z4z2d2 | 
[V:4] F,2E,2D,2z2 | 
[V:1] A2G2A2B2 | 
[V:2] f2d2f4- | 
[V:3] c2B2A2d2 | 
[V:4] F,2G,2D,2B,,2 | 
[V:1] c2B4A2- | 
[V:2] f2f2f4 | 
[V:3] c2d2A4 | 
[V:4] F,2B,,2F,4 | 
[V:1] A2G2(3:2:2A2z2 | 
[V:2] d4(3:2:2d2z2 | 
[V:3] B4(3:2:2A2z2 | 
[V:4] G,4(3:2:2D,2z2 | 
[V:1] (3:2:5A2A2A2A2F2 | 
[V:2] (3:2:5f2f2f2f2f2 | 
[V:3] (3:2:5A2A2A2A2A2 | 
[V:4] (3:2:5D,2D,2D,2F,2D,2 | 
[V:1] (3:2:4F2F2D2G2 | 
[V:2] (3:2:4d2f2g2c2 | 
[V:3] (3:2:4d2d2B2G2 | 
[V:4] (3:2:4D,2D,2G,2E,2 | 
[V:1] (3:2:5^F2>E2F2G2z2 | 
[V:2] (3:2:5d2>c2A2B2z2 | 
[V:3] (3:2:4A2A2G2z2 | 
[V:4] (3:2:5D,2>E,2D,2G,,2z2 | 
[V:1] z8 | 
[V:2] z8 | 
[V:3] (3:2:5B2B2c2d2c2 | 
[V:4] (3:2:5D,2D,2E,2F,2E,2 | 
[V:1] z8 | 
[V:2] z8 | 
[V:3] (3:2:5B2>A2G2A2z2 | 
[V:4] (3:2:5D,2>C,2B,,2A,,2z2 | 
[V:1] (3:2:5G2G2G2F2F2 | 
[V:2] (3:2:5d2d2d2d2d2 | 
[V:3] (3:2:5B2B2B2A2A2 | 
[V:4] (3:2:5G,,2G,,2G,,2D,2D,2 | 
[V:1] (3:2:4G2G2F2z2 | 
[V:2] (3:2:4d2d2d2z2 | 
[V:3] (3:2:4B2B2A2z2 | 
[V:4] (3:2:4G,,2G,,2D,2z2 | 
[V:1] (3:2:5F2F2G2A2G2 | 
[V:2] (3:2:5d2d2e2f2e2 | 
[V:3] z8 | 
[V:4] z8 | 
[V:1] (3:2:4F2G2A2z2 | 
[V:2] (3:2:5d2>c2B2A2z2 | 
[V:3] (3:2:4z2d2d2d2 | 
[V:4] (3:2:4z2D,2D,2D,2 | 
[V:1] z8 | 
[V:2] z8 | 
[V:3] (3:2:4d2c2B2A2 | 
[V:4] (3:2:4B,,2C,2D,2C,2 | 
[V:1] z4(3G2G2G2 | 
[V:2] z4(3d2d2d2 | 
[V:3] (3:2:4G2^F2G2z2 | 
[V:4] (3:2:4B,,2A,,2G,,2z2 | 
[V:1] (3:2:4F2F2A2A2 | 
[V:2] (3:2:4d2d2A2A2 | 
[V:3] (3:2:5A2A2A2A2A2 | 
[V:4] (3:2:5D,2D,2D,2F,2D,2 | 
[V:1] (3:2:4F2F2D2G2 | 
[V:2] (3:2:4A2d2d2c2 | 
[V:3] (3:2:4d2d2B2G2 | 
[V:4] (3:2:4D,2D,2G,2E,2 | 
[V:1] (3^F2>E2F2G4 |]  
[V:2] (3:2:1d2d4 |]  
[V:3] (3:2:2A2A2G4 |]  
[V:4] (3D,2>E,2D,2G,,4 |]  


